X:12007
T:Longford collector, The
T:Langford collector, The
R:Reel
C:Trad.
O:Ireland
M:4/4
L:1/8
Q:1/4=130
K:G
D|:"G"G2GA Bddg|"Em"eBB2 eBdB|"G"G2GA B2dB|"Am"AcBA "Em"GEDE|
"G"G2GA Bddg|"Em"eBBB "Bm"d2ef|"G"g2af gedB|"Am"AcBA "Em"GEDE:|
|:"G"g2ga gedf|"Em"eBBd "Bm"d2ef|"G"g2af gedB|"Am"AcBA "Em"GEDE:|

